X:1
T:Cutting Down the Pines
A:George Edwards
B:Folk Songs of the Catskills
C:Norman Cazden, Herbert Haufrecht & Norman Studer
L:1/8
M:6/8
N:Edited and Annotated, With a Study of Tune Formation and Relationships,
N:Folk Songs of the Catskills
N:by Norman Cazden, Herbert Haufrecht and Norman Studer
O:Catskills Mountain Region
Q:1/4=120
S:Catskill Mountains Region
Z:Jackie Fritts
K:C Major
A2AA2A|A2(AA2)A|G2AG2E|C6{E}|
w:Friends, if you will lis-ten, -  I'll sing to you a song,
G2GG2A|(GE2)D2D|D2EF2G|(A3A2)D
w:All a-bout the pine - woods and how they get a-long. -  A
D2EF2G|A(d2d2)d|d2cA2G|A6|
w:jo-vial lot of fel-lows - as ev-er you will find
F2DE2C|D2E(F2G)|AA2G2E|D6{A}|]
w:Spent the win-ter pleas-ant - ly cut-ting down the pines.